X:1
T:Title
%%score ( 1 2 ) 3
L:1/8
Q:1/4=90
M:4/4
K:Db
V:1 treble nm="Strings 1, Soprano"
V:2 treble 
V:3 bass nm="Strings 1, Bass"
V:1
 [DF][DF][DE]D [DF][FA] [FA]2 | [GB][GB][DG][GB] [Fd][FA] [FA]2 | %2
w: 1.~Dwell ing~ now~ in~ Ca naan~ land~|With~ the~ pure~ and~ ho ly~ band,~|
 [DF][DF][EF][EF] [DB][DA][EG][DF] | [DF]2 [DE]2 [CA]4 | [DF][DF][DE]D [DF][FA] [FA]2 | %5
w: Oh,~ how~ pre cious~ and~ how~ glo rious~|is~ my~ rest;~|Je sus~ smiles~ up on~ me~ here,~|
 [GB][GB][DG][GB] [Fd][FA] [FA]2 | [Gc][Gc][GB][Gc] [Fd][FA][DA][DG] | [DF]2 [CE]2 D4 | %8
w: I~ am~ free~ from~ doubt~ and~ fear,~|I~ am~ dwell ing~ on~ Mount~ Zi on's~|shin ing~ crest.~|
 [Fd][Fd][Fd][Fd] [GB][FA][Af][Ge] | [Fd]2 c-[Gc] [Fd]4 | [GB][Ac][Bd][GB] [FA][DF][FA][Fd] | %11
w: |||
 [Fd]2 [Ec]2 [Ge]4 | [FA][FA][Fd][Ge] [Af][Fd][FA]F | [_FB]2 [=FA]2 [FA]4 | %14
w: |||
 D[DE][DF][EG] [FA][GB][FA][Dd] | [Fd]2 [Gc]2 [Fd]4 |] %16
w: ||
V:2
 x8 | x8 | x8 | x8 | x8 | x8 | x8 | x8 | x8 | z2 .E2 z4 | x8 | x8 | x8 | x8 | x8 | x8 |] %16
V:3
 [D,A,][D,A,][D,G,][D,F,] [D,A,][D,D] [D,D]2 | [G,D][G,D][G,B,][G,D] [D,D][D,D] [D,D]2 | %2
 [D,A,][D,A,][C,=A,][C,A,] [B,,B,][B,,B,][C,_A,][D,A,] | [D,A,]2 [E,=G,]2 [A,,A,]4 | %4
 [D,A,][D,A,][D,G,][D,F,] [D,A,][D,D] [D,D]2 | [G,D][G,D][G,B,][G,D] [D,D][D,D] [D,D]2 | %6
 [A,E][A,E][A,E][A,E] [D,D][D,D][F,D][G,B,] | A,2 [A,,G,]2 [D,F,]4 | %8
 [D,A,][D,A,][D,A,][D,A,] [D,D][D,D][D,D][G,B,] | A,2 [A,,A,]2 [D,A,]4 | %10
 [G,D][G,D][G,D][G,D] [D,D][D,A,][D,A,][D,A,] | A,2 A,2 [A,C]4 | %12
 [D,D][D,D][D,A,][D,A,] [D,A,][D,A,][D,A,][D,A,] | [D,=G,]2 [D,A,]2 [D,D]4 | %14
 [D,F,][D,G,][D,A,][D,A,] [D,D][D,D][D,D][F,A,] | A,2 [A,,A,]2 [D,A,]4 |] %16

